; generated by Slic3r Prusa Edition 1.41.3+win64 on 2019-02-21 at 15:28:53

; 

; external perimeters extrusion width = 0.45mm
; perimeters extrusion width = 0.45mm
; infill extrusion width = 0.45mm
; solid infill extrusion width = 0.45mm
; top infill extrusion width = 0.40mm
; first layer extrusion width = 0.42mm

M73 P0 R29
M73 Q0 S29
M201 X1000 Y1000 Z1000 E5000 ; sets maximum accelerations, mm/sec^2
M203 X200 Y200 Z12 E120 ; sets maximum feedrates, mm/sec
M204 P1250 R1250 T1250 ; sets acceleration (P, T) and retract acceleration (R), mm/sec^2
M205 X8.00 Y8.00 Z0.40 E1.50 ; sets the jerk limits, mm/sec
M205 S0 T0 ; sets the minimum extruding and travel feed rate, mm/sec
M107
M115 U3.5.1 ; tell printer latest fw version
M83  ; extruder relative mode
M104 S215 ; set extruder temp
M140 S60 ; set bed temp
M190 S60 ; wait for bed temp
M109 S215 ; wait for extruder temp
G28 W ; home all without mesh bed level
G80 ; mesh bed leveling
G1 Y-3.0 F1000.0 ; go outside print area
G92 E0.0
G1 X60.0 E9.0  F1000.0 ; intro line
M73 Q0 S29
M73 P0 R29
G1 X100.0 E12.5  F1000.0 ; intro line
G92 E0.0
M221 S95
M900 K30; Filament gcode
G21 ; set units to millimeters
G90 ; use absolute coordinates
M83 ; use relative distances for extrusion
;BEFORE_LAYER_CHANGE
G92 E0.0
;0.2


G1 E-0.80000 F2100.00000
G1 Z0.600 F10800.000
;AFTER_LAYER_CHANGE
;0.2
G1 X201.511 Y79.751
G1 Z0.200
G1 E0.80000 F2100.00000
M204 S1000
G1 F1200
G1 X201.019 Y80.525 E0.02878
G1 X182.323 Y99.206 E0.82866
G1 X178.774 Y102.540 E0.15269
G1 X175.112 Y105.729 E0.15225
G1 X172.583 Y107.795 E0.10240
G1 X168.741 Y110.738 E0.15173
G1 X161.945 Y115.529 E0.26071
G1 X159.555 Y116.866 E0.08586
G1 X155.858 Y118.336 E0.12474
G1 X154.487 Y118.726 E0.04472
G1 X152.486 Y119.113 E0.06390
G1 X151.049 Y119.262 E0.04527
G1 X149.647 Y119.308 E0.04400
G1 X88.477 Y118.542 E1.91808
G1 X86.427 Y118.426 E0.06439
G1 X84.991 Y118.219 E0.04549
G1 X83.577 Y117.907 E0.04541
G1 X81.601 Y117.286 E0.06494
G1 X79.620 Y116.424 E0.06773
G1 X77.226 Y115.006 E0.08725
G1 X75.054 Y113.271 E0.08717
G1 X73.538 Y111.718 E0.06804
G1 X72.655 Y110.633 E0.04388
G1 X71.502 Y109.014 E0.06230
G1 X70.086 Y106.654 E0.08630
G1 X69.202 Y104.661 E0.06837
G1 X68.400 Y102.001 E0.08709
G1 X68.042 Y99.921 E0.06619
G1 X67.905 Y97.807 E0.06642
G1 X67.905 Y58.658 E1.22749
G1 X67.972 Y57.221 E0.04510
G1 X68.250 Y55.172 E0.06482
G1 X68.578 Y53.727 E0.04645
G1 X69.215 Y51.754 E0.06503
G1 X70.065 Y49.833 E0.06586
G1 X71.119 Y48.003 E0.06620
G1 X72.648 Y45.824 E0.08346
G1 X73.575 Y44.689 E0.04596
G1 X75.010 Y43.216 E0.06449
G1 X76.126 Y42.258 E0.04609
G1 X77.816 Y41.049 E0.06517
G1 X79.624 Y40.022 E0.06519
G1 X80.975 Y39.407 E0.04655
G1 X82.932 Y38.718 E0.06506
G1 X84.958 Y38.235 E0.06530
G1 X86.427 Y38.021 E0.04654
G1 X88.513 Y37.906 E0.06551
G1 X150.333 Y38.681 E1.93848
G1 X151.785 Y38.780 E0.04562
G1 X153.799 Y39.096 E0.06391
G1 X155.204 Y39.444 E0.04538
G1 X156.556 Y39.884 E0.04458
G1 X159.608 Y41.139 E0.10346
G1 X161.335 Y42.068 E0.06150
G1 X162.488 Y42.818 E0.04313
G1 X170.042 Y48.212 E0.29103
G1 X173.856 Y51.211 E0.15213
G1 X177.566 Y54.360 E0.15259
G1 X182.322 Y58.772 E0.20340
G1 X201.053 Y77.489 E0.83025
G1 X201.402 Y77.983 E0.01896
G1 X201.604 Y78.553 E0.01896
G1 X201.641 Y79.156 E0.01896
G1 X201.524 Y79.692 E0.01719
; PURGING FINISHED
G1 F8640
G1 X201.019 Y80.525 E-0.22499
G1 X199.380 Y82.163 E-0.53501
G1 E-0.04000 F2100.00000
G1 Z0.800 F10800.000
G1 X196.740 Y79.031
G1 Z0.200
G1 E0.80000 F2100.00000
G1 F1200
G1 X180.632 Y95.139 E0.71426
G1 X178.445 Y97.269 E0.09574
G1 X176.198 Y99.342 E0.09586
G1 X173.896 Y101.355 E0.09586
G1 X171.542 Y103.305 E0.09586
G1 X169.136 Y105.191 E0.09586
G1 X166.682 Y107.011 E0.09580
G1 X165.433 Y107.900 E0.04806
G1 X162.926 Y109.607 E0.09510
G1 X162.058 Y110.262 E0.03409
G1 X161.119 Y110.875 E0.03516
G1 X160.145 Y111.421 E0.03500
G1 X159.634 Y111.674 E0.01789
G1 X158.619 Y112.113 E0.03468
G1 X156.993 Y112.754 E0.05479
G1 X156.404 Y112.954 E0.01950
G1 X155.233 Y113.280 E0.03812
G1 X154.623 Y113.414 E0.01958
G1 X153.417 Y113.608 E0.03829
G1 X152.201 Y113.713 E0.03829
G1 X151.577 Y113.732 E0.01957
G1 X150.356 Y113.700 E0.03829
G1 X149.135 Y113.578 E0.03846
G1 X147.927 Y113.364 E0.03846
G1 X146.738 Y113.062 E0.03847
G1 X145.575 Y112.672 E0.03846
G1 X144.444 Y112.197 E0.03846
G1 X143.352 Y111.639 E0.03846
G1 X142.304 Y111.002 E0.03846
G1 X141.306 Y110.288 E0.03846
G1 X140.364 Y109.502 E0.03846
G1 X139.483 Y108.649 E0.03846
G1 X138.668 Y107.732 E0.03846
G1 X137.928 Y106.763 E0.03822
G1 X136.896 Y105.270 E0.05693
G1 X136.268 Y104.209 E0.03864
G1 X135.722 Y103.103 E0.03867
G1 X135.259 Y101.960 E0.03867
G1 X134.883 Y100.785 E0.03867
G1 X134.596 Y99.586 E0.03867
G1 X134.399 Y98.368 E0.03867
G1 X134.294 Y97.139 E0.03867
G1 X134.281 Y95.906 E0.03867
G1 X134.360 Y94.675 E0.03867
G1 X134.531 Y93.454 E0.03867
G1 X134.793 Y92.248 E0.03867
G1 X135.144 Y91.066 E0.03867
G1 X135.580 Y89.918 E0.03850
G1 X135.836 Y89.345 E0.01968
G1 X136.398 Y88.253 E0.03850
G1 X137.022 Y87.236 E0.03741
G1 X137.578 Y86.188 E0.03722
G1 X138.231 Y85.151 E0.03841
G1 X139.089 Y83.974 E0.04565
G1 X140.082 Y84.660 E0.03784
G1 X139.494 Y85.686 E0.03708
G1 X139.249 Y86.166 E0.01690
G1 X138.961 Y86.619 E0.01684
G1 X138.468 Y87.509 E0.03190
G1 X138.258 Y87.953 E0.01538
G1 X137.880 Y88.891 E0.03170
G1 X137.582 Y89.857 E0.03170
G1 X137.463 Y90.348 E0.01584
G1 X137.289 Y91.329 E0.03126
G1 X137.194 Y92.330 E0.03152
G1 X137.182 Y93.341 E0.03170
G1 X137.208 Y93.846 E0.01584
G1 X137.319 Y94.836 E0.03126
G1 X137.513 Y95.823 E0.03152
G1 X137.787 Y96.790 E0.03152
G1 X138.139 Y97.731 E0.03152
G1 X138.571 Y98.646 E0.03171
G1 X138.807 Y99.076 E0.01538
G1 X139.351 Y99.936 E0.03193
G1 X140.258 Y101.202 E0.04880
G1 X140.580 Y101.598 E0.01603
G1 X141.267 Y102.343 E0.03177
G1 X141.636 Y102.696 E0.01601
G1 X142.405 Y103.346 E0.03158
G1 X143.233 Y103.936 E0.03185
G1 X144.106 Y104.454 E0.03185
G1 X145.020 Y104.898 E0.03185
G1 X145.967 Y105.265 E0.03185
G1 X146.942 Y105.551 E0.03185
G1 X147.937 Y105.756 E0.03185
G1 X148.945 Y105.878 E0.03185
G1 X149.960 Y105.915 E0.03185
G1 X150.981 Y105.868 E0.03204
G1 X151.474 Y105.814 E0.01554
G1 X152.481 Y105.640 E0.03204
G1 X153.470 Y105.383 E0.03204
G1 X153.941 Y105.229 E0.01555
G1 X155.797 Y104.490 E0.06262
G1 X156.205 Y104.300 E0.01413
G1 X157.024 Y103.862 E0.02912
G1 X157.803 Y103.366 E0.02894
G1 X158.571 Y102.791 E0.03010
G1 X159.750 Y101.997 E0.04455
G1 X162.044 Y100.375 E0.08810
G1 X164.287 Y98.682 E0.08811
G1 X166.472 Y96.926 E0.08789
G1 X168.608 Y95.096 E0.08817
G1 X169.649 Y94.162 E0.04388
G1 X171.697 Y92.237 E0.08811
G1 X184.915 Y79.033 E0.58581
G1 X171.697 Y65.830 E0.58581
G1 X169.649 Y63.905 E0.08811
G1 X168.608 Y62.970 E0.04388
G1 X166.472 Y61.141 E0.08817
G1 X165.386 Y60.254 E0.04395
G1 X164.256 Y59.360 E0.04518
G1 X162.044 Y57.692 E0.08687
G1 X159.750 Y56.069 E0.08811
G1 X158.571 Y55.276 E0.04455
G1 X157.803 Y54.701 E0.03010
G1 X157.024 Y54.205 E0.02894
G1 X156.205 Y53.766 E0.02912
G1 X155.797 Y53.577 E0.01413
G1 X153.947 Y52.841 E0.06242
G1 X152.961 Y52.541 E0.03231
G1 X151.976 Y52.329 E0.03158
G1 X151.486 Y52.254 E0.01555
G1 X150.468 Y52.165 E0.03204
G1 X149.452 Y52.160 E0.03185
G1 X148.440 Y52.239 E0.03185
G1 X147.437 Y52.403 E0.03185
G1 X146.446 Y52.650 E0.03204
G1 X145.973 Y52.800 E0.01554
G1 X145.020 Y53.169 E0.03204
G1 X144.106 Y53.613 E0.03185
G1 X143.228 Y54.134 E0.03203
G1 X142.806 Y54.422 E0.01601
G1 X142.011 Y55.040 E0.03158
G1 X141.263 Y55.728 E0.03185
G1 X140.571 Y56.479 E0.03204
G1 X140.258 Y56.865 E0.01556
G1 X139.351 Y58.130 E0.04882
G1 X138.810 Y58.986 E0.03174
G1 X138.342 Y59.882 E0.03170
G1 X138.136 Y60.343 E0.01584
G1 X137.787 Y61.277 E0.03125
G1 X137.513 Y62.244 E0.03152
G1 X137.319 Y63.231 E0.03152
G1 X137.207 Y64.230 E0.03152
G1 X137.178 Y65.240 E0.03171
G1 X137.194 Y65.731 E0.01538
G1 X137.289 Y66.737 E0.03171
G1 X137.465 Y67.727 E0.03152
G1 X137.724 Y68.705 E0.03171
G1 X137.878 Y69.170 E0.01538
G1 X138.258 Y70.114 E0.03189
G1 X138.468 Y70.557 E0.01538
G1 X138.961 Y71.447 E0.03190
G1 X139.249 Y71.900 E0.01684
G1 X139.491 Y72.375 E0.01669
G1 X140.069 Y73.387 E0.03654
G1 X139.075 Y74.071 E0.03783
G1 X138.231 Y72.911 E0.04499
G1 X137.578 Y71.875 E0.03841
G1 X137.022 Y70.826 E0.03722
G1 X136.398 Y69.809 E0.03741
G1 X135.836 Y68.717 E0.03852
G1 X135.565 Y68.107 E0.02092
G1 X135.144 Y66.996 E0.03725
G1 X134.793 Y65.814 E0.03867
G1 X134.531 Y64.609 E0.03867
G1 X134.360 Y63.387 E0.03867
G1 X134.281 Y62.156 E0.03867
G1 X134.294 Y60.928 E0.03852
G1 X134.340 Y60.262 E0.02092
G1 X134.486 Y59.083 E0.03725
G1 X134.728 Y57.874 E0.03867
G1 X135.060 Y56.686 E0.03867
G1 X135.480 Y55.526 E0.03867
G1 X135.985 Y54.401 E0.03867
G1 X136.572 Y53.317 E0.03867
G1 X137.235 Y52.286 E0.03842
G1 X138.287 Y50.810 E0.05683
G1 X139.067 Y49.865 E0.03843
G1 X139.916 Y48.979 E0.03846
G1 X140.828 Y48.159 E0.03846
G1 X141.798 Y47.408 E0.03846
G1 X142.822 Y46.732 E0.03846
G1 X143.893 Y46.134 E0.03846
G1 X145.005 Y45.617 E0.03846
G1 X146.153 Y45.184 E0.03846
G1 X147.330 Y44.838 E0.03846
G1 X148.529 Y44.580 E0.03846
G1 X149.745 Y44.412 E0.03848
G1 X151.008 Y44.335 E0.03969
G1 X152.195 Y44.349 E0.03722
G1 X153.417 Y44.454 E0.03846
G1 X154.623 Y44.649 E0.03829
G1 X155.827 Y44.936 E0.03880
G1 X156.988 Y45.307 E0.03822
G1 X158.619 Y45.949 E0.05496
G1 X159.634 Y46.389 E0.03468
G1 X160.146 Y46.642 E0.01789
G1 X161.119 Y47.187 E0.03500
G1 X162.058 Y47.800 E0.03516
G1 X162.926 Y48.455 E0.03409
G1 X165.433 Y50.163 E0.09510
G1 X166.682 Y51.051 E0.04805
G1 X169.136 Y52.871 E0.09580
G1 X171.542 Y54.757 E0.09586
G1 X173.896 Y56.708 E0.09586
G1 X176.198 Y58.720 E0.09586
G1 X178.445 Y60.793 E0.09586
G1 X180.632 Y62.923 E0.09574
G1 X196.698 Y78.989 E0.71238
G1 X196.207 Y79.031 F10800.000
G1 F1200
G1 X180.368 Y94.871 E0.70235
G1 X178.185 Y96.996 E0.09550
G1 X175.946 Y99.062 E0.09554
G1 X173.652 Y101.068 E0.09554
G1 X171.305 Y103.011 E0.09554
G1 X168.907 Y104.891 E0.09554
G1 X166.460 Y106.706 E0.09552
G1 X165.217 Y107.590 E0.04782
G1 X162.706 Y109.301 E0.09527
G1 X161.841 Y109.953 E0.03397
G1 X160.924 Y110.552 E0.03435
G1 X159.970 Y111.087 E0.03430
G1 X159.475 Y111.331 E0.01729
G1 X158.475 Y111.765 E0.03418
G1 X156.863 Y112.399 E0.05431
G1 X156.293 Y112.593 E0.01889
G1 X155.142 Y112.914 E0.03746
G1 X154.553 Y113.043 E0.01892
G1 X153.371 Y113.234 E0.03752
G1 X152.179 Y113.336 E0.03752
G1 X151.576 Y113.354 E0.01892
G1 X150.380 Y113.324 E0.03752
G1 X149.187 Y113.204 E0.03758
G1 X148.007 Y112.996 E0.03758
G1 X146.845 Y112.700 E0.03758
G1 X145.708 Y112.319 E0.03758
G1 X144.603 Y111.855 E0.03758
G1 X143.536 Y111.310 E0.03758
G1 X142.512 Y110.687 E0.03758
G1 X141.537 Y109.990 E0.03758
G1 X140.616 Y109.222 E0.03758
G1 X139.756 Y108.388 E0.03758
G1 X138.959 Y107.492 E0.03758
G1 X138.233 Y106.541 E0.03750
G1 X137.213 Y105.066 E0.05623
G1 X136.600 Y104.029 E0.03778
G1 X136.066 Y102.949 E0.03779
G1 X135.614 Y101.832 E0.03779
G1 X135.246 Y100.684 E0.03779
G1 X134.966 Y99.512 E0.03779
G1 X134.774 Y98.322 E0.03779
G1 X134.671 Y97.121 E0.03779
G1 X134.658 Y95.916 E0.03779
G1 X134.735 Y94.713 E0.03779
G1 X134.902 Y93.520 E0.03779
G1 X135.158 Y92.342 E0.03779
G1 X135.501 Y91.187 E0.03779
G1 X135.929 Y90.062 E0.03773
G1 X136.176 Y89.508 E0.01902
G1 X136.727 Y88.438 E0.03773
G1 X137.350 Y87.423 E0.03734
G1 X137.905 Y86.377 E0.03715
G1 X138.544 Y85.363 E0.03757
G1 X139.177 Y84.494 E0.03372
G1 X139.582 Y84.773 E0.01545
G1 X139.162 Y85.507 E0.02650
G1 X138.922 Y85.979 E0.01663
G1 X138.637 Y86.427 E0.01663
G1 X138.133 Y87.337 E0.03263
G1 X137.912 Y87.801 E0.01611
G1 X137.525 Y88.765 E0.03256
G1 X137.218 Y89.757 E0.03255
G1 X137.094 Y90.270 E0.01657
G1 X136.915 Y91.278 E0.03210
G1 X136.817 Y92.310 E0.03249
G1 X136.805 Y93.348 E0.03256
G1 X136.832 Y93.876 E0.01657
G1 X136.946 Y94.894 E0.03210
G1 X137.146 Y95.910 E0.03249
G1 X137.428 Y96.907 E0.03249
G1 X137.792 Y97.878 E0.03249
G1 X138.234 Y98.817 E0.03256
G1 X138.482 Y99.267 E0.01611
G1 X139.038 Y100.147 E0.03264
G1 X139.958 Y101.431 E0.04951
G1 X140.295 Y101.845 E0.01675
G1 X140.998 Y102.608 E0.03250
G1 X141.384 Y102.977 E0.01675
G1 X142.174 Y103.645 E0.03243
G1 X143.027 Y104.252 E0.03283
G1 X143.927 Y104.786 E0.03283
G1 X144.869 Y105.244 E0.03283
G1 X145.846 Y105.622 E0.03283
G1 X146.850 Y105.918 E0.03283
G1 X147.876 Y106.129 E0.03283
G1 X148.916 Y106.254 E0.03283
G1 X149.962 Y106.292 E0.03283
G1 X151.010 Y106.244 E0.03290
G1 X151.526 Y106.187 E0.01628
G1 X152.560 Y106.009 E0.03290
G1 X153.576 Y105.745 E0.03290
G1 X154.069 Y105.583 E0.01628
G1 X155.946 Y104.837 E0.06332
G1 X156.374 Y104.638 E0.01480
G1 X157.215 Y104.188 E0.02990
G1 X158.017 Y103.677 E0.02983
G1 X158.789 Y103.098 E0.03025
G1 X159.964 Y102.308 E0.04439
G1 X162.267 Y100.679 E0.08842
G1 X164.518 Y98.981 E0.08843
G1 X165.623 Y98.106 E0.04417
G1 X166.714 Y97.215 E0.04418
G1 X168.856 Y95.380 E0.08845
G1 X169.904 Y94.440 E0.04415
G1 X171.959 Y92.508 E0.08843
G1 X185.449 Y79.033 E0.59782
G1 X171.959 Y65.559 E0.59782
G1 X169.904 Y63.627 E0.08843
G1 X168.856 Y62.687 E0.04415
G1 X166.714 Y60.852 E0.08845
G1 X165.623 Y59.960 E0.04418
G1 X164.487 Y59.062 E0.04541
G1 X162.267 Y57.387 E0.08719
G1 X159.964 Y55.759 E0.08842
G1 X158.789 Y54.969 E0.04439
G1 X158.017 Y54.390 E0.03025
G1 X157.215 Y53.879 E0.02983
G1 X156.374 Y53.429 E0.02990
G1 X155.946 Y53.230 E0.01480
G1 X154.072 Y52.484 E0.06325
G1 X153.056 Y52.176 E0.03330
G1 X152.044 Y51.958 E0.03244
G1 X151.531 Y51.880 E0.01628
G1 X150.485 Y51.788 E0.03290
G1 X149.438 Y51.783 E0.03283
G1 X148.394 Y51.865 E0.03283
G1 X147.361 Y52.033 E0.03283
G1 X146.343 Y52.287 E0.03290
G1 X145.848 Y52.444 E0.01628
G1 X144.869 Y52.823 E0.03290
G1 X143.927 Y53.281 E0.03283
G1 X143.025 Y53.816 E0.03290
G1 X142.584 Y54.117 E0.01675
G1 X141.767 Y54.752 E0.03244
G1 X140.996 Y55.461 E0.03283
G1 X140.285 Y56.233 E0.03290
G1 X139.958 Y56.636 E0.01629
G1 X139.038 Y57.920 E0.04951
G1 X138.483 Y58.797 E0.03257
G1 X138.002 Y59.718 E0.03255
G1 X137.787 Y60.200 E0.01657
G1 X137.428 Y61.159 E0.03210
G1 X137.146 Y62.156 E0.03249
G1 X136.946 Y63.173 E0.03249
G1 X136.831 Y64.203 E0.03249
G1 X136.800 Y65.241 E0.03256
G1 X136.817 Y65.755 E0.01611
G1 X136.915 Y66.788 E0.03256
G1 X137.097 Y67.809 E0.03249
G1 X137.362 Y68.812 E0.03256
G1 X137.524 Y69.300 E0.01611
G1 X137.912 Y70.266 E0.03263
G1 X138.133 Y70.730 E0.01611
G1 X138.637 Y71.640 E0.03263
G1 X138.922 Y72.088 E0.01664
G1 X139.159 Y72.554 E0.01640
G1 X139.569 Y73.273 E0.02596
G1 X139.164 Y73.552 E0.01544
G1 X138.543 Y72.700 E0.03307
G1 X137.905 Y71.686 E0.03757
G1 X137.350 Y70.639 E0.03715
G1 X136.727 Y69.624 E0.03734
G1 X136.176 Y68.554 E0.03773
G1 X135.914 Y67.964 E0.02025
G1 X135.501 Y66.876 E0.03649
G1 X135.158 Y65.720 E0.03779
G1 X134.902 Y64.543 E0.03779
G1 X134.735 Y63.349 E0.03779
G1 X134.658 Y62.146 E0.03779
G1 X134.671 Y60.943 E0.03773
G1 X134.715 Y60.299 E0.02025
G1 X134.859 Y59.144 E0.03649
G1 X135.095 Y57.962 E0.03779
G1 X135.419 Y56.801 E0.03779
G1 X135.829 Y55.668 E0.03779
G1 X136.323 Y54.568 E0.03779
G1 X136.897 Y53.509 E0.03779
G1 X137.548 Y52.498 E0.03770
G1 X138.587 Y51.040 E0.05613
G1 X139.349 Y50.115 E0.03757
G1 X140.178 Y49.250 E0.03758
G1 X141.069 Y48.448 E0.03758
G1 X142.018 Y47.715 E0.03758
G1 X143.018 Y47.055 E0.03758
G1 X144.064 Y46.470 E0.03758
G1 X145.151 Y45.965 E0.03758
G1 X146.273 Y45.542 E0.03758
G1 X147.423 Y45.204 E0.03758
G1 X148.595 Y44.952 E0.03758
G1 X149.782 Y44.788 E0.03759
G1 X151.018 Y44.712 E0.03881
G1 X152.177 Y44.726 E0.03635
G1 X153.371 Y44.829 E0.03758
G1 X154.553 Y45.019 E0.03752
G1 X155.140 Y45.148 E0.01885
G1 X155.722 Y45.299 E0.01886
G1 X156.861 Y45.662 E0.03749
G1 X158.475 Y46.298 E0.05437
G1 X159.475 Y46.731 E0.03418
G1 X159.970 Y46.976 E0.01729
G1 X160.924 Y47.510 E0.03430
G1 X161.841 Y48.109 E0.03435
G1 X162.706 Y48.762 E0.03397
G1 X165.217 Y50.472 E0.09527
G1 X166.460 Y51.356 E0.04782
G1 X168.907 Y53.171 E0.09552
G1 X171.305 Y55.051 E0.09554
G1 X173.652 Y56.995 E0.09554
G1 X175.946 Y59.001 E0.09554
G1 X178.185 Y61.067 E0.09554
G1 X180.368 Y63.192 E0.09550
G1 X196.165 Y78.989 E0.70047
G1 X196.490 Y79.314 F10800.000
G1 F8640
G1 X193.844 Y81.322 E-0.76000
G1 E-0.04000 F2100.00000
G1 Z0.800 F10800.000
