; generated by Slic3r Prusa Edition 1.41.3+win64 on 2019-02-22 at 08:09:20

; 

; external perimeters extrusion width = 0.45mm
; perimeters extrusion width = 0.45mm
; infill extrusion width = 0.45mm
; solid infill extrusion width = 0.45mm
; top infill extrusion width = 0.40mm
; first layer extrusion width = 0.42mm

M73 P0 R266
M73 Q0 S269
M201 X1000 Y1000 Z1000 E5000 ; sets maximum accelerations, mm/sec^2
M203 X200 Y200 Z12 E120 ; sets maximum feedrates, mm/sec
M204 P1250 R1250 T1250 ; sets acceleration (P, T) and retract acceleration (R), mm/sec^2
M205 X8.00 Y8.00 Z0.40 E1.50 ; sets the jerk limits, mm/sec
M205 S0 T0 ; sets the minimum extruding and travel feed rate, mm/sec
M107
M115 U3.5.1 ; tell printer latest fw version
M83  ; extruder relative mode
M104 S215 ; set extruder temp
M140 S60 ; set bed temp
M190 S60 ; wait for bed temp
M109 S215 ; wait for extruder temp
G28 W ; home all without mesh bed level
G80 ; mesh bed leveling
G1 Y-3.0 F1000.0 ; go outside print area
G92 E0.0
G1 X60.0 E9.0  F1000.0 ; intro line
M73 Q0 S269
M73 P0 R266
G1 X100.0 E12.5  F1000.0 ; intro line
G92 E0.0
M221 S95
M900 K30; Filament gcode
G21 ; set units to millimeters
G90 ; use absolute coordinates
M83 ; use relative distances for extrusion
;BEFORE_LAYER_CHANGE
G92 E0.0
;0.2


G1 E-0.80000 F2100.00000
G1 Z0.600 F10800.000
;AFTER_LAYER_CHANGE
;0.2
G1 X85.331 Y65.374
G1 Z0.200
G1 E0.80000 F2100.00000
M204 S1000
G1 F1200
G1 X86.037 Y64.889 E0.02687
G1 X86.880 Y64.712 E0.02698
G1 X163.104 Y64.711 E2.38995
G1 X163.930 Y64.875 E0.02642
G1 X164.634 Y65.339 E0.02642
G1 X165.110 Y66.034 E0.02642
G1 X165.288 Y66.858 E0.02642
G1 X165.288 Y143.118 E2.39110
G1 X165.125 Y143.930 E0.02597
G1 X164.669 Y144.626 E0.02608
G1 X163.953 Y145.116 E0.02721
G1 X163.102 Y145.289 E0.02721
G1 X86.882 Y145.288 E2.38984
G1 X86.070 Y145.125 E0.02597
G1 X85.374 Y144.669 E0.02608
G1 X84.884 Y143.953 E0.02721
G1 X84.711 Y143.102 E0.02721
G1 X84.712 Y66.882 E2.38984
G1 X84.875 Y66.070 E0.02597
G1 X85.298 Y65.424 E0.02420
; PURGING FINISHED
G1 F8640
G1 X86.037 Y64.889 E-0.21076
G1 X86.880 Y64.712 E-0.19870
G1 X88.398 Y64.712 E-0.35053
G1 E-0.04000 F2100.00000
G1 Z0.800 F10800.000
G1 X98.696 Y114.034
G1 Z0.200
G1 E0.80000 F2100.00000
G1 F1200
G1 X99.145 Y113.952 E0.01430
G1 X99.567 Y113.926 E0.01326
G1 X100.053 Y113.951 E0.01524
G1 X100.504 Y114.034 E0.01438
G1 X100.939 Y114.170 E0.01430
G1 X101.355 Y114.357 E0.01430
G1 X101.745 Y114.593 E0.01430
G1 X102.104 Y114.874 E0.01430
G1 X102.426 Y115.196 E0.01430
G1 X102.707 Y115.555 E0.01430
G1 X102.943 Y115.945 E0.01430
G1 X103.130 Y116.361 E0.01430
G1 X103.266 Y116.796 E0.01430
G1 X103.348 Y117.245 E0.01430
G1 X103.376 Y117.700 E0.01430
G1 X103.348 Y118.155 E0.01430
G1 X103.266 Y118.604 E0.01430
G1 X103.130 Y119.039 E0.01430
G1 X102.943 Y119.455 E0.01430
G1 X102.707 Y119.845 E0.01430
G1 X102.426 Y120.204 E0.01430
G1 X102.104 Y120.526 E0.01430
G1 X101.745 Y120.807 E0.01430
G1 X101.355 Y121.043 E0.01430
G1 X100.939 Y121.230 E0.01430
G1 X100.504 Y121.366 E0.01430
G1 X100.055 Y121.448 E0.01430
G1 X99.600 Y121.476 E0.01430
G1 X99.145 Y121.448 E0.01430
G1 X98.696 Y121.366 E0.01430
G1 X98.261 Y121.230 E0.01430
G1 X97.845 Y121.043 E0.01430
G1 X97.455 Y120.807 E0.01430
G1 X97.096 Y120.526 E0.01430
G1 X96.774 Y120.204 E0.01430
G1 X96.493 Y119.845 E0.01430
G1 X96.257 Y119.455 E0.01430
G1 X96.070 Y119.039 E0.01430
G1 X95.934 Y118.604 E0.01430
G1 X95.852 Y118.155 E0.01430
G1 X95.824 Y117.700 E0.01430
G1 X95.852 Y117.245 E0.01430
G1 X95.934 Y116.796 E0.01430
G1 X96.070 Y116.361 E0.01430
G1 X96.257 Y115.945 E0.01430
G1 X96.493 Y115.555 E0.01430
G1 X96.774 Y115.196 E0.01430
G1 X97.096 Y114.874 E0.01430
G1 X97.455 Y114.593 E0.01430
G1 X97.845 Y114.357 E0.01430
G1 X98.261 Y114.170 E0.01430
G1 X98.639 Y114.052 E0.01242
G1 X98.751 Y114.412 F10800.000
G1 F1200
G1 X99.190 Y114.327 E0.01402
G1 X99.569 Y114.304 E0.01189
G1 X100.009 Y114.327 E0.01381
G1 X100.413 Y114.401 E0.01290
G1 X100.805 Y114.523 E0.01287
G1 X101.179 Y114.691 E0.01287
G1 X101.530 Y114.903 E0.01287
G1 X101.853 Y115.156 E0.01287
G1 X102.144 Y115.447 E0.01287
G1 X102.397 Y115.770 E0.01287
G1 X102.609 Y116.121 E0.01287
G1 X102.777 Y116.495 E0.01287
G1 X102.899 Y116.887 E0.01287
G1 X102.973 Y117.290 E0.01287
G1 X102.998 Y117.700 E0.01287
G1 X102.973 Y118.110 E0.01287
G1 X102.899 Y118.513 E0.01287
G1 X102.777 Y118.905 E0.01287
G1 X102.609 Y119.279 E0.01287
G1 X102.397 Y119.630 E0.01287
G1 X102.144 Y119.953 E0.01287
G1 X101.853 Y120.244 E0.01287
G1 X101.530 Y120.497 E0.01287
G1 X101.179 Y120.709 E0.01287
G1 X100.805 Y120.877 E0.01287
G1 X100.413 Y120.999 E0.01287
G1 X100.010 Y121.073 E0.01287
G1 X99.600 Y121.098 E0.01287
G1 X99.190 Y121.073 E0.01287
G1 X98.787 Y120.999 E0.01287
G1 X98.395 Y120.877 E0.01287
G1 X98.021 Y120.709 E0.01287
G1 X97.670 Y120.497 E0.01287
G1 X97.347 Y120.244 E0.01287
G1 X97.056 Y119.953 E0.01287
G1 X96.803 Y119.630 E0.01287
G1 X96.591 Y119.279 E0.01287
G1 X96.423 Y118.905 E0.01287
G1 X96.301 Y118.513 E0.01287
G1 X96.227 Y118.110 E0.01287
G1 X96.202 Y117.700 E0.01287
G1 X96.227 Y117.290 E0.01287
G1 X96.301 Y116.887 E0.01287
G1 X96.423 Y116.495 E0.01287
G1 X96.591 Y116.121 E0.01287
G1 X96.803 Y115.770 E0.01287
G1 X97.057 Y115.447 E0.01287
G1 X97.347 Y115.156 E0.01287
G1 X97.670 Y114.903 E0.01287
G1 X98.021 Y114.691 E0.01287
G1 X98.395 Y114.523 E0.01287
G1 X98.694 Y114.430 E0.00982
G1 X98.860 Y114.027 F10800.000
G1 F8640
G1 X99.190 Y114.327 E-0.11706
G1 X99.569 Y114.304 E-0.08754
G1 X100.009 Y114.327 E-0.10170
G1 X100.413 Y114.401 E-0.09496
G1 X100.805 Y114.523 E-0.09475
G1 X101.179 Y114.691 E-0.09475
G1 X101.530 Y114.903 E-0.09475
G1 X101.784 Y115.102 E-0.07449
G1 E-0.04000 F2100.00000
G1 Z0.800 F10800.000
G1 X99.600 Y96.076
G1 Z0.200
G1 E0.80000 F2100.00000
G1 F1200
G1 X99.145 Y96.048 E0.01430
G1 X98.696 Y95.966 E0.01430
G1 X98.261 Y95.830 E0.01430
G1 X97.845 Y95.643 E0.01430
G1 X97.455 Y95.407 E0.01430
G1 X97.096 Y95.126 E0.01430
G1 X96.774 Y94.804 E0.01430
G1 X96.493 Y94.445 E0.01430
G1 X96.257 Y94.055 E0.01430
G1 X96.070 Y93.639 E0.01430
G1 X95.934 Y93.204 E0.01430
G1 X95.852 Y92.755 E0.01430
G1 X95.824 Y92.300 E0.01430
G1 X95.852 Y91.845 E0.01430
G1 X95.928 Y91.429 E0.01326
G1 X96.068 Y90.963 E0.01524
G1 X96.257 Y90.545 E0.01438
G1 X96.493 Y90.155 E0.01430
G1 X96.774 Y89.796 E0.01430
G1 X97.096 Y89.474 E0.01430
G1 X97.455 Y89.193 E0.01430
G1 X97.845 Y88.957 E0.01430
G1 X98.261 Y88.770 E0.01430
G1 X98.696 Y88.634 E0.01430
G1 X99.145 Y88.552 E0.01430
G1 X99.567 Y88.526 E0.01326
G1 X100.053 Y88.551 E0.01524
G1 X100.504 Y88.634 E0.01438
G1 X100.939 Y88.770 E0.01430
G1 X101.355 Y88.957 E0.01430
G1 X101.745 Y89.193 E0.01430
G1 X102.104 Y89.474 E0.01430
G1 X102.426 Y89.796 E0.01430
G1 X102.707 Y90.155 E0.01430
G1 X102.943 Y90.545 E0.01430
G1 X103.130 Y90.961 E0.01430
G1 X103.266 Y91.396 E0.01430
G1 X103.348 Y91.845 E0.01430
G1 X103.376 Y92.300 E0.01430
G1 X103.348 Y92.755 E0.01430
G1 X103.266 Y93.204 E0.01430
G1 X103.130 Y93.639 E0.01430
G1 X102.957 Y94.025 E0.01326
G1 X102.709 Y94.443 E0.01524
G1 X102.426 Y94.804 E0.01438
G1 X102.104 Y95.126 E0.01430
G1 X101.745 Y95.407 E0.01430
G1 X101.383 Y95.626 E0.01326
G1 X100.941 Y95.830 E0.01524
G1 X100.504 Y95.966 E0.01438
G1 X100.055 Y96.048 E0.01430
G1 X99.660 Y96.072 E0.01242
G1 X99.637 Y95.696 F10800.000
G1 F1200
G1 X99.190 Y95.673 E0.01402
G1 X98.787 Y95.599 E0.01287
G1 X98.395 Y95.477 E0.01287
G1 X98.021 Y95.309 E0.01287
G1 X97.670 Y95.097 E0.01287
G1 X97.347 Y94.844 E0.01287
G1 X97.057 Y94.553 E0.01287
G1 X96.803 Y94.230 E0.01287
G1 X96.591 Y93.879 E0.01287
G1 X96.423 Y93.505 E0.01287
G1 X96.301 Y93.113 E0.01287
G1 X96.227 Y92.710 E0.01287
G1 X96.202 Y92.300 E0.01287
G1 X96.227 Y91.890 E0.01287
G1 X96.295 Y91.518 E0.01189
G1 X96.422 Y91.096 E0.01381
G1 X96.591 Y90.721 E0.01290
G1 X96.803 Y90.370 E0.01287
G1 X97.056 Y90.047 E0.01287
G1 X97.347 Y89.756 E0.01287
G1 X97.670 Y89.503 E0.01287
G1 X98.021 Y89.291 E0.01287
G1 X98.395 Y89.123 E0.01287
G1 X98.787 Y89.001 E0.01287
G1 X99.190 Y88.927 E0.01287
G1 X99.569 Y88.904 E0.01189
G1 X100.009 Y88.927 E0.01381
G1 X100.413 Y89.001 E0.01290
G1 X100.805 Y89.123 E0.01287
G1 X101.179 Y89.291 E0.01287
G1 X101.530 Y89.503 E0.01287
G1 X101.853 Y89.756 E0.01287
G1 X102.144 Y90.047 E0.01287
G1 X102.397 Y90.370 E0.01287
G1 X102.609 Y90.721 E0.01287
G1 X102.777 Y91.095 E0.01287
G1 X102.899 Y91.487 E0.01287
G1 X102.973 Y91.890 E0.01287
G1 X102.998 Y92.300 E0.01287
G1 X102.973 Y92.710 E0.01287
G1 X102.899 Y93.113 E0.01287
G1 X102.777 Y93.505 E0.01287
G1 X102.622 Y93.851 E0.01189
G1 X102.397 Y94.230 E0.01381
G1 X102.144 Y94.553 E0.01290
G1 X101.853 Y94.844 E0.01287
G1 X101.530 Y95.097 E0.01287
G1 X101.206 Y95.293 E0.01189
G1 X100.806 Y95.477 E0.01381
G1 X100.413 Y95.599 E0.01290
G1 X100.010 Y95.673 E0.01287
G1 X99.697 Y95.692 E0.00982
G1 X99.440 Y96.044 F10800.000
G1 F8640
G1 X99.190 Y95.673 E-0.11706
G1 X98.787 Y95.599 E-0.09475
G1 X98.395 Y95.477 E-0.09475
G1 X98.021 Y95.309 E-0.09475
G1 X97.670 Y95.097 E-0.09475
G1 X97.347 Y94.844 E-0.09475
G1 X97.057 Y94.553 E-0.09475
G1 X96.858 Y94.300 E-0.07445
G1 E-0.04000 F2100.00000
G1 Z0.800 F10800.000
G1 X146.652 Y92.755
G1 Z0.200
G1 E0.80000 F2100.00000
G1 F1200
G1 X146.624 Y92.300 E0.01430
G1 X146.652 Y91.845 E0.01430
G1 X146.728 Y91.429 E0.01326
G1 X146.868 Y90.963 E0.01524
G1 X147.057 Y90.545 E0.01438
G1 X147.293 Y90.155 E0.01430
G1 X147.574 Y89.796 E0.01430
G1 X147.896 Y89.474 E0.01430
G1 X148.255 Y89.193 E0.01430
G1 X148.645 Y88.957 E0.01430
G1 X149.061 Y88.770 E0.01430
G1 X149.496 Y88.634 E0.01430
G1 X149.945 Y88.552 E0.01430
G1 X150.367 Y88.526 E0.01326
G1 X150.853 Y88.551 E0.01524
G1 X151.304 Y88.634 E0.01438
G1 X151.739 Y88.770 E0.01430
G1 X152.155 Y88.957 E0.01430
G1 X152.545 Y89.193 E0.01430
G1 X152.904 Y89.474 E0.01430
G1 X153.226 Y89.796 E0.01430
G1 X153.507 Y90.155 E0.01430
G1 X153.743 Y90.545 E0.01430
G1 X153.930 Y90.961 E0.01430
G1 X154.066 Y91.396 E0.01430
G1 X154.148 Y91.845 E0.01430
G1 X154.176 Y92.300 E0.01430
G1 X154.148 Y92.755 E0.01430
G1 X154.072 Y93.171 E0.01326
G1 X153.932 Y93.637 E0.01524
G1 X153.743 Y94.055 E0.01438
G1 X153.507 Y94.445 E0.01430
G1 X153.226 Y94.804 E0.01430
G1 X152.904 Y95.126 E0.01430
G1 X152.545 Y95.407 E0.01430
G1 X152.155 Y95.643 E0.01430
G1 X151.739 Y95.830 E0.01430
G1 X151.304 Y95.966 E0.01430
G1 X150.855 Y96.048 E0.01430
G1 X150.400 Y96.076 E0.01430
G1 X149.945 Y96.048 E0.01430
G1 X149.529 Y95.972 E0.01326
G1 X149.063 Y95.832 E0.01524
G1 X148.645 Y95.643 E0.01438
G1 X148.255 Y95.407 E0.01430
G1 X147.896 Y95.126 E0.01430
G1 X147.574 Y94.804 E0.01430
G1 X147.293 Y94.445 E0.01430
G1 X147.057 Y94.055 E0.01430
G1 X146.870 Y93.639 E0.01430
G1 X146.734 Y93.204 E0.01430
G1 X146.662 Y92.814 E0.01241
G1 X147.033 Y92.746 F10800.000
G1 F1200
G1 X147.002 Y92.300 E0.01402
G1 X147.027 Y91.890 E0.01287
G1 X147.095 Y91.518 E0.01189
G1 X147.222 Y91.096 E0.01381
G1 X147.391 Y90.721 E0.01290
G1 X147.603 Y90.370 E0.01287
G1 X147.856 Y90.047 E0.01287
G1 X148.147 Y89.756 E0.01287
G1 X148.470 Y89.503 E0.01287
G1 X148.821 Y89.291 E0.01287
G1 X149.195 Y89.123 E0.01287
G1 X149.587 Y89.001 E0.01287
G1 X149.990 Y88.927 E0.01287
G1 X150.369 Y88.904 E0.01189
G1 X150.809 Y88.927 E0.01381
G1 X151.213 Y89.001 E0.01290
G1 X151.605 Y89.123 E0.01287
G1 X151.979 Y89.291 E0.01287
G1 X152.330 Y89.503 E0.01287
G1 X152.653 Y89.756 E0.01287
G1 X152.943 Y90.047 E0.01287
G1 X153.197 Y90.370 E0.01287
G1 X153.409 Y90.721 E0.01287
G1 X153.577 Y91.095 E0.01287
G1 X153.699 Y91.487 E0.01287
G1 X153.773 Y91.890 E0.01287
G1 X153.798 Y92.300 E0.01287
G1 X153.773 Y92.710 E0.01287
G1 X153.705 Y93.082 E0.01189
G1 X153.578 Y93.504 E0.01381
G1 X153.409 Y93.879 E0.01289
G1 X153.197 Y94.230 E0.01287
G1 X152.943 Y94.553 E0.01287
G1 X152.653 Y94.844 E0.01287
G1 X152.330 Y95.097 E0.01287
G1 X151.979 Y95.309 E0.01287
G1 X151.605 Y95.477 E0.01287
G1 X151.213 Y95.599 E0.01287
G1 X150.810 Y95.673 E0.01287
G1 X150.400 Y95.698 E0.01287
G1 X149.990 Y95.673 E0.01287
G1 X149.618 Y95.605 E0.01189
G1 X149.196 Y95.478 E0.01381
G1 X148.821 Y95.309 E0.01290
G1 X148.470 Y95.097 E0.01287
G1 X148.147 Y94.844 E0.01287
G1 X147.856 Y94.553 E0.01287
G1 X147.603 Y94.230 E0.01287
G1 X147.391 Y93.879 E0.01287
G1 X147.223 Y93.505 E0.01287
G1 X147.101 Y93.113 E0.01287
G1 X147.044 Y92.805 E0.00982
G1 X146.664 Y92.592 F10800.000
G1 F8640
G1 X147.002 Y92.300 E-0.11706
G1 X147.027 Y91.890 E-0.09475
G1 X147.095 Y91.518 E-0.08754
G1 X147.222 Y91.096 E-0.10170
G1 X147.391 Y90.721 E-0.09496
G1 X147.603 Y90.370 E-0.09475
G1 X147.856 Y90.047 E-0.09475
G1 X148.085 Y89.819 E-0.07449
G1 E-0.04000 F2100.00000
G1 Z0.800 F10800.000
G1 X149.945 Y113.952
G1 Z0.200
G1 E0.80000 F2100.00000
G1 F1200
G1 X150.367 Y113.926 E0.01326
G1 X150.853 Y113.951 E0.01524
G1 X151.304 Y114.034 E0.01438
G1 X151.739 Y114.170 E0.01430
G1 X152.155 Y114.357 E0.01430
G1 X152.545 Y114.593 E0.01430
G1 X152.904 Y114.874 E0.01430
G1 X153.226 Y115.196 E0.01430
G1 X153.487 Y115.529 E0.01326
G1 X153.742 Y115.943 E0.01524
G1 X153.930 Y116.361 E0.01438
G1 X154.066 Y116.796 E0.01430
G1 X154.148 Y117.245 E0.01430
G1 X154.176 Y117.700 E0.01430
G1 X154.148 Y118.155 E0.01430
G1 X154.066 Y118.604 E0.01430
G1 X153.930 Y119.039 E0.01430
G1 X153.743 Y119.455 E0.01430
G1 X153.507 Y119.845 E0.01430
G1 X153.226 Y120.204 E0.01430
G1 X152.904 Y120.526 E0.01430
G1 X152.545 Y120.807 E0.01430
G1 X152.155 Y121.043 E0.01430
G1 X151.739 Y121.230 E0.01430
G1 X151.304 Y121.366 E0.01430
G1 X150.855 Y121.448 E0.01430
G1 X150.400 Y121.476 E0.01430
G1 X149.945 Y121.448 E0.01430
G1 X149.496 Y121.366 E0.01430
G1 X149.061 Y121.230 E0.01430
G1 X148.645 Y121.043 E0.01430
G1 X148.255 Y120.807 E0.01430
G1 X147.896 Y120.526 E0.01430
G1 X147.574 Y120.204 E0.01430
G1 X147.293 Y119.845 E0.01430
G1 X147.057 Y119.455 E0.01430
G1 X146.870 Y119.039 E0.01430
G1 X146.734 Y118.604 E0.01430
G1 X146.652 Y118.155 E0.01430
G1 X146.624 Y117.700 E0.01430
G1 X146.652 Y117.245 E0.01430
G1 X146.734 Y116.796 E0.01430
G1 X146.870 Y116.361 E0.01430
G1 X147.057 Y115.945 E0.01430
G1 X147.293 Y115.555 E0.01430
G1 X147.574 Y115.196 E0.01430
G1 X147.896 Y114.874 E0.01430
G1 X148.255 Y114.593 E0.01430
G1 X148.645 Y114.357 E0.01430
G1 X149.061 Y114.170 E0.01430
G1 X149.496 Y114.034 E0.01430
G1 X149.886 Y113.962 E0.01242
G1 X149.954 Y114.333 F10800.000
G1 F1200
G1 X150.369 Y114.304 E0.01305
G1 X150.809 Y114.327 E0.01381
G1 X151.213 Y114.401 E0.01290
G1 X151.605 Y114.523 E0.01287
G1 X151.979 Y114.691 E0.01287
G1 X152.330 Y114.903 E0.01287
G1 X152.653 Y115.156 E0.01287
G1 X152.943 Y115.447 E0.01287
G1 X153.177 Y115.745 E0.01189
G1 X153.408 Y116.120 E0.01381
G1 X153.577 Y116.495 E0.01289
G1 X153.699 Y116.887 E0.01287
G1 X153.773 Y117.290 E0.01287
G1 X153.798 Y117.700 E0.01287
G1 X153.773 Y118.110 E0.01287
G1 X153.699 Y118.513 E0.01287
G1 X153.577 Y118.905 E0.01287
G1 X153.409 Y119.279 E0.01287
G1 X153.197 Y119.630 E0.01287
G1 X152.943 Y119.953 E0.01287
G1 X152.653 Y120.244 E0.01287
G1 X152.330 Y120.497 E0.01287
G1 X151.979 Y120.709 E0.01287
G1 X151.605 Y120.877 E0.01287
G1 X151.213 Y120.999 E0.01287
G1 X150.810 Y121.073 E0.01287
G1 X150.400 Y121.098 E0.01287
G1 X149.990 Y121.073 E0.01287
G1 X149.587 Y120.999 E0.01287
G1 X149.195 Y120.877 E0.01287
G1 X148.821 Y120.709 E0.01287
G1 X148.470 Y120.497 E0.01287
G1 X148.147 Y120.244 E0.01287
G1 X147.856 Y119.953 E0.01287
G1 X147.603 Y119.630 E0.01287
G1 X147.391 Y119.279 E0.01287
G1 X147.223 Y118.905 E0.01287
G1 X147.101 Y118.513 E0.01287
G1 X147.027 Y118.110 E0.01287
G1 X147.002 Y117.700 E0.01287
G1 X147.027 Y117.290 E0.01287
G1 X147.101 Y116.887 E0.01287
G1 X147.223 Y116.495 E0.01287
G1 X147.391 Y116.121 E0.01287
G1 X147.603 Y115.770 E0.01287
G1 X147.857 Y115.447 E0.01287
G1 X148.147 Y115.156 E0.01287
G1 X148.470 Y114.903 E0.01287
G1 X148.821 Y114.691 E0.01287
G1 X149.195 Y114.523 E0.01287
G1 X149.587 Y114.401 E0.01287
G1 X149.895 Y114.344 E0.00982
G1 X150.108 Y113.964 F10800.000
G1 F8640
G1 X150.369 Y114.304 E-0.10985
G1 X150.809 Y114.327 E-0.10170
G1 X151.213 Y114.401 E-0.09496
G1 X151.605 Y114.523 E-0.09475
G1 X151.979 Y114.691 E-0.09475
G1 X152.330 Y114.903 E-0.09475
G1 X152.653 Y115.156 E-0.09475
